X:1
T:Like a Star of the Morning
T:Like a Star of the Morning
T:Edmund Simon Lorenz
T:Henry Burns Hartzler, 1878
T:Public Domain Courtesy of the Cyber Hymnal™
T:Public Domain Courtesy of the Cyber Hymnal™
C:Edmund Simon Lorenz
Z:Public Domain
Z:Courtesy of the Cyber Hymnal™
%%score ( 1 2 ) 3
L:1/8
Q:1/4=98
M:4/4
K:Eb
V:1 treble 
V:2 treble 
V:3 bass 
V:1
 [EG]>[FA] | [GB]2 [GB]>[GB] [Ac][GB][EG]E | [DF]4 E2 [EG][GB] | [Ac]2 [Ac]>[Ac] [Af][Ae][Ad][Ac] | %4
w: 1.~Like a|star of the morn- ing in its|beau- ty, Like a|sun is the Bi- ble to my|
w: 2.~’Tis a|light in the wild- er- ness of|sor- row, And a|lamp on the wea- ry pil- grim|
w: 3.~’Tis the|voice of a friend for- ev- er|near me, In the|toil and the bat- tle here be-|
w: 4.~It shall|stand in its beau- ty and its|glo- ry, When the|earth and the hea- vens pass a-|
 [GB]6 [EG]>[FA] | [GB]2 [GB]>[GB] [Ac][GB] | [EG]E | [Ee]4 [Ed]2 [Ee][Ec] | %8
w: soul, Shin- ing|clear on the way of|love and|du- ty, As I|
w: way; And it|guides to the bright, e-|ter- nal|mor- row, Shin- ing|
w: low; In the|gloom of the val- ley|it will|cheer me, Till the|
w: way, Ev- er|tell- ing the bless- èd,|won- drous|sto- ry Of the|
 [Ec][EB][EG][EB] [DB][DA][DF][B,D] | [B,E]6 ||"^Refrain" [EB]>[Ec] | [DB]2 [B,D]3 [DF][DB][Dc] | %12
w: has- ten on my jour- ney to the|goal.|||
w: more and more un- to the per- fect|day.|Ho- ly|Bi- ble! my pre- cious|
w: glo- ry of His king- dom I shall|know.|||
w: lov- ing Lamb, the on- ly Liv- ing|Way.|||
 [EB]2 [B,E]4 [EB][Ec] | [DB][Fd][Fd][Fd] [Ad][Ac] [Ad]/[Ad]/[Af] | [Ge]4 [GB]2 [EG]>[FA] | %15
w: |||
w: Bi- ble! Gift of|God, and lamp of life, My beau- ti- ful|Bi- ble! I will|
w: |||
w: |||
 [GB]2 [GB]>[GB] [Ac][GB][EG]E | [Ee]4 [Ed]2 [Ee][Ec] | [Ec][EB][EG][EB] [DB][DA][DF][B,D] | %18
w: |||
w: cling to the dear old ho- ly|Bi- ble, As I|has- ten to the ci- ty of the|
w: |||
w: |||
 [B,E]6 |] %19
w: |
w: King.|
w: |
w: |
V:2
 x2 | x7 E | x4 E2 x2 | x8 | x8 | x6 | x E | x8 | x8 | x6 || x2 | x8 | x8 | x8 | x8 | x7 E | x8 | %17
 x8 | x6 |] %19
V:3
 [E,B,]>[E,B,] | [E,E]2 [E,E]>[E,E] [E,E][E,E][E,B,][E,G,] | [B,,A,]4 [E,G,]2 [E,B,][E,E] | %3
w: ~ ~|~ ~ ~ ~ ~ ~ ~|~ ~ ~ ~|
 [A,E]2 [A,E]>[A,D] [A,C][A,C][A,D][A,E] | [E,E]6 [E,B,]>[E,B,] | [E,E]2 [E,E]>[E,E] [E,E][E,E] | %6
w: ~ ~ ~ ~ ~ ~ ~|~ ~ ~|~ ~ ~ ~ ~|
 [E,B,][G,B,] | [A,C]4 [A,B,]2 [A,,C][A,,A,] | %8
w: ~ ~|~ ~ ~ ~|
 [B,,G,][B,,G,][B,,B,][B,,G,] [B,,F,][B,,F,][B,,A,][B,,F,] | [E,G,]6 || [E,G,]>[E,G,] | %11
w: ~ ~ ~ ~ ~ ~ ~ ~|~|Ho- ly|
 [B,,F,][B,,F,][B,,F,][B,,F,] [B,,F,][B,,B,][B,,B,][B,,A,] | %12
w: Bi- ble! ho- ly Bi- ble pre- cious|
 [E,G,][E,G,][E,G,][E,G,] [E,G,]2 [E,G,][E,G,] | %13
w: Bi- ble! book di- vine! ~ ~|
 [B,,F,][B,,B,][B,,B,][B,,B,] [B,,B,][B,,B,] [B,,B,]/[B,,B,]/[B,,B,] | %14
w: ~ ~ ~ ~ ~ ~ ~ ~ ~|
 [E,B,][E,B,][E,B,][E,B,] [E,E]2 [E,B,]>[E,B,] | [E,E]2 [E,E]>[E,E] [E,E][E,E][E,B,][G,B,] | %16
w: Bi- ble! thou art mine! * *||
 [A,C]4 [A,B,]2 [A,,C][A,,A,] | [B,,G,][B,,G,][B,,B,][B,,G,] [B,,F,][B,,F,][B,,A,][B,,F,] | %18
w: ||
 [E,G,]6 |] %19
w: |

